packages/core/src/svgs/gbex.svg

<svg width="24" height="24" viewBox="0 0 24 24" fill="none" xmlns="http://www.w3.org/2000/svg">
<g clip-path="url(#clip0_31_10685)">
<path d="M0 0H24V24H0V0Z" fill="#F0F3FA"/>
<path d="M5.99992 11.9998C5.99992 12.9091 6.36115 13.7812 7.00413 14.4241C7.64711 15.0671 8.51918 15.4284 9.42849 15.4284H16.2856C16.5728 15.4284 17.1428 15.2569 17.1428 14.5712C17.1428 13.8855 16.5728 13.7141 16.2856 13.7141H9.85707V11.1426H16.0714C16.3585 11.1426 17.1428 10.9712 17.1428 10.2855C17.1428 9.42835 16.4999 9.42835 16.0714 9.42835H14.5714V6.85692H17.1428C17.9271 6.85692 19.7142 7.28549 19.7142 9.64264C19.7142 10.2855 19.3714 11.9141 17.9999 12.4284C18.5699 12.5012 19.7142 13.0284 19.7142 14.5712C19.7142 16.4998 18.8571 17.9998 16.2856 17.9998H8.99992V17.9826C8.02378 17.9125 7.0796 17.6047 6.2497 17.086C5.4198 16.5674 4.72937 15.8535 4.23861 15.0068C3.74785 14.1601 3.47166 13.2062 3.43411 12.2283C3.39656 11.2503 3.59879 10.278 4.02318 9.39619C4.44757 8.51434 5.08122 7.74968 5.86891 7.16888C6.65659 6.58809 7.57438 6.20878 8.54228 6.06404C9.51017 5.91929 10.4988 6.0135 11.4219 6.33845C12.3451 6.6634 13.1747 7.20923 13.8385 7.92835L11.9485 9.67264C11.4806 9.16543 10.8705 8.81123 10.198 8.65634C9.52558 8.50146 8.82203 8.55309 8.17938 8.8045C7.53674 9.05591 6.98492 9.49539 6.59607 10.0655C6.20722 10.6356 5.99945 11.3097 5.99992 11.9998Z" fill="#FE036A"/>
</g>
<defs>
<clipPath id="clip0_31_10685">
<rect width="24" height="24" fill="white"/>
</clipPath>
</defs>
</svg>

<svg xmlns="http://www.w3.org/2000/svg" width="24" height="24" fill="none" viewBox="0 0 24 24"><g clip-path="url(#a)"><path fill="#F0F3FA" d="M0 0h24v24H0z"/><path fill="#FE036A" d="M6 12a3.43 3.43 0 0 0 3.428 3.428h6.858c.287 0 .857-.171.857-.857s-.57-.857-.857-.857H9.857v-2.571h6.214c.287 0 1.072-.172 1.072-.857 0-.858-.643-.858-1.072-.858h-1.5V6.857h2.572c.784 0 2.571.428 2.571 2.786 0 .643-.343 2.271-1.714 2.785.57.073 1.714.6 1.714 2.143 0 1.929-.857 3.429-3.428 3.429H9v-.017a6 6 0 1 1 4.839-10.055l-1.89 1.745A3.428 3.428 0 0 0 5.998 12"/></g><defs><clipPath id="a"><path fill="#fff" d="M0 0h24v24H0z"/></clipPath></defs></svg>
